X:898
T:Wandering Tinker
R:Reel
B:The Athole Collection
M:C|
L:1/8
K:C
G|c2ec egec|Bddc Bdde|c2ec egec|BagB c2c:|A|GFEF GABc|
Bddc Bdde|cGEF GABc|AagB c2cA|GFEF GABc|Bddc Bdde|
cedf egfa|gefd c2c||

